public/twitter.svg

<svg width="24" height="24" viewBox="0 0 24 24" fill="none" xmlns="http://www.w3.org/2000/svg">
<g clip-path="url(#clip0_101_274)">
<path d="M23.642 4.93772C22.807 5.30772 21.91 5.55772 20.967 5.67072C21.94 5.08851 22.668 4.17218 23.015 3.09272C22.1009 3.63571 21.1004 4.01791 20.057 4.22272C19.3554 3.47358 18.4261 2.97704 17.4134 2.81019C16.4006 2.64334 15.3611 2.81551 14.4563 3.29997C13.5514 3.78443 12.8318 4.55408 12.4092 5.48942C11.9866 6.42476 11.8846 7.47347 12.119 8.47272C10.2667 8.37971 8.45466 7.89827 6.80046 7.05962C5.14626 6.22098 3.68688 5.04388 2.51704 3.60472C2.11704 4.29472 1.88704 5.09472 1.88704 5.94672C1.88659 6.71371 2.07547 7.46896 2.43691 8.14545C2.79836 8.82194 3.3212 9.39876 3.95904 9.82472C3.21931 9.80118 2.49591 9.6013 1.84904 9.24172V9.30172C1.84896 10.3775 2.22107 11.4201 2.90222 12.2527C3.58337 13.0853 4.53161 13.6566 5.58604 13.8697C4.89982 14.0554 4.18037 14.0828 3.48204 13.9497C3.77953 14.8753 4.35903 15.6847 5.1394 16.2646C5.91977 16.8445 6.86195 17.1659 7.83404 17.1837C6.18387 18.4791 4.14592 19.1818 2.04804 19.1787C1.67642 19.1788 1.30511 19.1571 0.936035 19.1137C3.06551 20.4829 5.54438 21.2095 8.07604 21.2067C16.646 21.2067 21.331 14.1087 21.331 7.95272C21.331 7.75272 21.326 7.55072 21.317 7.35072C22.2283 6.69169 23.0149 5.87561 23.64 4.94072L23.642 4.93772V4.93772Z" fill="#DBEAFE"/>
</g>
<defs>
<clipPath id="clip0_101_274">
<rect width="24" height="24" fill="white" transform="translate(-0.000976562 0.000732422)"/>
</clipPath>
</defs>
</svg>

<svg width="24" height="24" fill="none" xmlns="http://www.w3.org/2000/svg"><g clip-path="url(#a)"><path d="M23.642 4.9377c-.835.37-1.732.62-2.675.733a4.6698 4.6698 0 0 0 2.048-2.578 9.2991 9.2991 0 0 1-2.958 1.13 4.6598 4.6598 0 0 0-7.6478 1.2667 4.6606 4.6606 0 0 0-.2902 2.9833 13.2289 13.2289 0 0 1-9.602-4.868c-.4.69-.63 1.49-.63 2.342a4.66 4.66 0 0 0 2.072 3.878 4.647 4.647 0 0 1-2.11-.583v.06a4.6598 4.6598 0 0 0 3.737 4.568 4.6918 4.6918 0 0 1-2.104.08 4.661 4.661 0 0 0 4.352 3.234 9.348 9.348 0 0 1-5.786 1.995 9.4998 9.4998 0 0 1-1.112-.065 13.175 13.175 0 0 0 7.14 2.093c8.57 0 13.255-7.098 13.255-13.254 0-.2-.005-.402-.014-.602a9.4702 9.4702 0 0 0 2.323-2.41l.002-.003Z" fill="#DBEAFE"/></g><defs><clipPath id="a"><path fill="#fff" transform="translate(-.001 .0007)" d="M0 0h24v24H0z"/></clipPath></defs></svg>
